communes/877.svg

<?xml version="1.0" encoding="UTF-8" standalone="no"?>
<svg
   xmlns:dc="http://purl.org/dc/elements/1.1/"
   xmlns:cc="http://web.resource.org/cc/"
   xmlns:rdf="http://www.w3.org/1999/02/22-rdf-syntax-ns#"
   xmlns:svg="http://www.w3.org/2000/svg"
   xmlns="http://www.w3.org/2000/svg"
   xmlns:xlink="http://www.w3.org/1999/xlink"
   xmlns:sodipodi="http://sodipodi.sourceforge.net/DTD/sodipodi-0.dtd"
   xmlns:inkscape="http://www.inkscape.org/namespaces/inkscape"
   height="763"
   width="603"
   version="1.0"
   id="svg20"
   sodipodi:version="0.32"
   inkscape:version="0.44.1"
   sodipodi:docname="Niedermuhlern-coat of arms.svg"
   sodipodi:docbase="F:\Mis Documentos\Mis imágenes\Encyclopédie\Escudos de Suiza">
  <metadata
     id="metadata31">
    <rdf:RDF>
      <cc:Work
         rdf:about="">
        <dc:format>image/svg+xml</dc:format>
        <dc:type
           rdf:resource="http://purl.org/dc/dcmitype/StillImage" />
        <dc:date>07-AUG-2006</dc:date>
        <dc:creator>
          <cc:Agent>
            <dc:title>Jérôme BLUM (wagner51)</dc:title>
          </cc:Agent>
        </dc:creator>
        <cc:license
           rdf:resource="http://creativecommons.org/licenses/GPL/2.0/" />
        <dc:coverage />
        <dc:description>Gabarit pour le Projet:Blasons de WIkipédia</dc:description>
        <dc:subject>
          <rdf:Bag>
            <rdf:li>blason suisse modèle gabarit projet blasons</rdf:li>
          </rdf:Bag>
        </dc:subject>
        <dc:language>fr</dc:language>
        <dc:title>Gabrit d'un blason suisse</dc:title>
      </cc:Work>
      <cc:License
         rdf:about="http://creativecommons.org/licenses/GPL/2.0/">
        <cc:permits
           rdf:resource="http://web.resource.org/cc/Reproduction" />
        <cc:permits
           rdf:resource="http://web.resource.org/cc/Distribution" />
        <cc:requires
           rdf:resource="http://web.resource.org/cc/Notice" />
        <cc:permits
           rdf:resource="http://web.resource.org/cc/DerivativeWorks" />
        <cc:requires
           rdf:resource="http://web.resource.org/cc/ShareAlike" />
        <cc:requires
           rdf:resource="http://web.resource.org/cc/SourceCode" />
      </cc:License>
    </rdf:RDF>
  </metadata>
  <defs
     id="defs29">
    <linearGradient
       id="linearGradient2893">
      <stop
         style="stop-color:#ffffff;stop-opacity:0.3137255;"
         offset="0"
         id="stop2895" />
      <stop
         id="stop2897"
         offset="0.19"
         style="stop-color:#ffffff;stop-opacity:0.25098041;" />
      <stop
         style="stop-color:#6b6b6b;stop-opacity:0.1254902;"
         offset="0.60000002"
         id="stop2901" />
      <stop
         style="stop-color:#000000;stop-opacity:0.1254902;"
         offset="1"
         id="stop2899" />
    </linearGradient>
    <linearGradient
       id="linearGradient2955">
      <stop
         style="stop-color:white;stop-opacity:0;"
         offset="0"
         id="stop2965" />
      <stop
         style="stop-color:black;stop-opacity:0.64583331;"
         offset="1"
         id="stop2959" />
    </linearGradient>
    <radialGradient
       inkscape:collect="always"
       xlink:href="#linearGradient2893"
       id="radialGradient3236"
       gradientUnits="userSpaceOnUse"
       gradientTransform="matrix(1.215027,1.531577e-24,1.464684e-23,1.266667,-839.1924,-490.4894)"
       cx="858.04236"
       cy="579.93323"
       fx="858.04236"
       fy="579.93323"
       r="300" />
  </defs>
  <sodipodi:namedview
     inkscape:window-height="682"
     inkscape:window-width="1024"
     inkscape:pageshadow="2"
     inkscape:pageopacity="0.0"
     guidetolerance="10.0"
     gridtolerance="10.0"
     objecttolerance="10.0"
     borderopacity="1.0"
     bordercolor="#666666"
     pagecolor="#ffffff"
     id="base"
     inkscape:zoom="0.48301887"
     inkscape:cx="471.48533"
     inkscape:cy="394.46653"
     inkscape:window-x="-4"
     inkscape:window-y="-4"
     inkscape:current-layer="layer2"
     showgrid="true"
     showguides="true"
     inkscape:guide-bbox="true" />
  <desc
     id="desc22">Coat of Arms of Canton of Freiburg (Fribourg)</desc>
  <g
     inkscape:groupmode="layer"
     id="layer1"
     inkscape:label="Fond écu"
     sodipodi:insensitive="true">
    <path
       id="path1899"
       d="M 1.5,1.49998 L 1.5,460.3679 C 1.5,626.6785 135.81456,761.5 301.49999,761.5 C 467.18543,761.5 601.5,626.6785 601.5,460.3679 L 601.5,1.49998 L 1.5,1.49998 z "
       style="fill:#2b5df2;fill-opacity:1" />
    <path
       style="fill:white;fill-opacity:1;fill-rule:evenodd;stroke:black;stroke-width:3;stroke-linecap:butt;stroke-linejoin:miter;stroke-miterlimit:4;stroke-dasharray:none;stroke-opacity:1"
       d="M 200,3 L 1.5,4.6875 L 1.5,205.09375 L 389.53125,748.3125 C 484.89847,718.97286 560.0151,643.21065 588.78125,547.28125 L 200,3 z "
       id="path16242" />
  </g>
  <g
     inkscape:groupmode="layer"
     id="layer2"
     inkscape:label="Meubles"
     sodipodi:insensitive="true">
    <g
       id="g18033"
       transform="matrix(1.045611,0,0,1.045611,-23.45526,-24.29438)">
      <path
         transform="matrix(1.91546,-1.327263,1.327263,1.91546,-1821.555,763.2581)"
         d="M 885.67888,296.00568 L 854.04612,292.00727 L 842.16727,321.59633 L 829.8136,292.20234 L 798.24931,296.70948 L 817.52841,271.31391 L 797.84297,246.23199 L 829.47573,250.2304 L 841.35458,220.64134 L 853.70825,250.03533 L 885.27254,245.52819 L 865.99344,270.92377 L 885.67888,296.00568 z "
         inkscape:randomized="0"
         inkscape:rounded="0"
         inkscape:flatsided="false"
         sodipodi:arg2="1.0391478"
         sodipodi:arg1="0.51554901"
         sodipodi:r2="24.233301"
         sodipodi:r1="50.479126"
         sodipodi:cy="271.11884"
         sodipodi:cx="841.76093"
         sodipodi:sides="6"
         id="path17134"
         style="fill:#2b5df2;fill-opacity:1;fill-rule:evenodd;stroke:black;stroke-width:1.28735042;stroke-miterlimit:4;stroke-dasharray:none;stroke-opacity:1"
         sodipodi:type="star" />
      <path
         transform="matrix(1.925882,-1.312094,1.312094,1.925882,-1681.858,953.8286)"
         sodipodi:type="star"
         style="fill:#2b5df2;fill-opacity:1;fill-rule:evenodd;stroke:black;stroke-width:1.28735065;stroke-miterlimit:4;stroke-dasharray:none;stroke-opacity:1"
         id="path17136"
         sodipodi:sides="6"
         sodipodi:cx="841.76093"
         sodipodi:cy="271.11884"
         sodipodi:r1="50.479126"
         sodipodi:r2="24.233301"
         sodipodi:arg1="0.51554901"
         sodipodi:arg2="1.0391478"
         inkscape:flatsided="false"
         inkscape:rounded="0"
         inkscape:randomized="0"
         d="M 885.67888,296.00568 L 854.04612,292.00727 L 842.16727,321.59633 L 829.8136,292.20234 L 798.24931,296.70948 L 817.52841,271.31391 L 797.84297,246.23199 L 829.47573,250.2304 L 841.35458,220.64134 L 853.70825,250.03533 L 885.27254,245.52819 L 865.99344,270.92377 L 885.67888,296.00568 z " />
      <path
         d="M 885.67888,296.00568 L 854.04612,292.00727 L 842.16727,321.59633 L 829.8136,292.20234 L 798.24931,296.70948 L 817.52841,271.31391 L 797.84297,246.23199 L 829.47573,250.2304 L 841.35458,220.64134 L 853.70825,250.03533 L 885.27254,245.52819 L 865.99344,270.92377 L 885.67888,296.00568 z "
         inkscape:randomized="0"
         inkscape:rounded="0"
         inkscape:flatsided="false"
         sodipodi:arg2="1.0391478"
         sodipodi:arg1="0.51554901"
         sodipodi:r2="24.233301"
         sodipodi:r1="50.479126"
         sodipodi:cy="271.11884"
         sodipodi:cx="841.76093"
         sodipodi:sides="6"
         id="path17138"
         style="fill:#2b5df2;fill-opacity:1;fill-rule:evenodd;stroke:black;stroke-width:1.28735054;stroke-miterlimit:4;stroke-dasharray:none;stroke-opacity:1"
         sodipodi:type="star"
         transform="matrix(1.913579,-1.329973,1.329973,1.913579,-1531.992,1178.378)" />
    </g>
  </g>
  <g
     inkscape:groupmode="layer"
     id="layer3"
     inkscape:label="Reflet final"
     style="display:inline"
     sodipodi:insensitive="true">
    <path
       style="fill:url(#radialGradient3236);fill-opacity:1"
       d="M 1.5,1.5 L 1.5,460.3679 C 1.5,626.67854 135.81454,761.5 301.49993,761.5 C 467.1854,761.5 601.5,626.67854 601.5,460.3679 L 601.5,1.5 L 1.5,1.5 z "
       id="path2346" />
  </g>
  <g
     inkscape:groupmode="layer"
     id="layer4"
     inkscape:label="Contour final"
     style="display:inline"
     sodipodi:insensitive="true">
    <path
       style="fill:none;fill-opacity:1;stroke:black;stroke-width:3;stroke-miterlimit:4;stroke-dasharray:none;stroke-opacity:1"
       d="M 1.5,1.5 L 1.5,460.36794 C 1.5,626.67854 135.81454,761.5 301.49993,761.5 C 467.1854,761.5 601.5,626.67854 601.5,460.36794 L 601.5,1.5 L 1.5,1.5 z "
       id="path3239" />
  </g>
</svg>

<?xml version="1.0" encoding="UTF-8"?>
<svg version="1.0" viewBox="0 0 603 763" xmlns="http://www.w3.org/2000/svg" xmlns:cc="http://web.resource.org/cc/" xmlns:dc="http://purl.org/dc/elements/1.1/" xmlns:rdf="http://www.w3.org/1999/02/22-rdf-syntax-ns#" xmlns:xlink="http://www.w3.org/1999/xlink">
<metadata>
<rdf:RDF>
<cc:Work rdf:about="">
<dc:format>image/svg+xml</dc:format>
<dc:type rdf:resource="http://purl.org/dc/dcmitype/StillImage"/>
<dc:date>07-AUG-2006</dc:date>
<dc:creator>
<cc:Agent>
<dc:title>Jérôme BLUM (wagner51)</dc:title>
</cc:Agent>
</dc:creator>
<cc:license rdf:resource="http://creativecommons.org/licenses/GPL/2.0/"/>
<dc:coverage/>
<dc:description>Gabarit pour le Projet:Blasons de WIkipédia</dc:description>
<dc:subject>
<rdf:Bag>
<rdf:li>blason suisse modèle gabarit projet blasons</rdf:li>
</rdf:Bag>
</dc:subject>
<dc:language>fr</dc:language>
<dc:title>Gabrit d'un blason suisse</dc:title>
</cc:Work>
<cc:License rdf:about="http://creativecommons.org/licenses/GPL/2.0/">
<cc:permits rdf:resource="http://web.resource.org/cc/Reproduction"/>
<cc:permits rdf:resource="http://web.resource.org/cc/Distribution"/>
<cc:requires rdf:resource="http://web.resource.org/cc/Notice"/>
<cc:permits rdf:resource="http://web.resource.org/cc/DerivativeWorks"/>
<cc:requires rdf:resource="http://web.resource.org/cc/ShareAlike"/>
<cc:requires rdf:resource="http://web.resource.org/cc/SourceCode"/>
</cc:License>
</rdf:RDF>
</metadata>
<defs>
<radialGradient id="a" cx="858.04" cy="579.93" r="300" gradientTransform="matrix(1.215 1.5316e-24 1.4647e-23 1.2667 -839.19 -490.49)" gradientUnits="userSpaceOnUse">
<stop stop-color="#fff" stop-opacity=".31373" offset="0"/>
<stop stop-color="#fff" stop-opacity=".25098" offset=".19"/>
<stop stop-color="#6b6b6b" stop-opacity=".12549" offset=".6"/>
<stop stop-opacity=".12549" offset="1"/>
</radialGradient>
</defs>
<desc>Coat of Arms of Canton of Freiburg (Fribourg)</desc>
<g>
<path d="m1.5 1.5v458.87c0 166.31 134.31 301.13 300 301.13 165.69 0 300-134.82 300-301.13v-458.87h-600z" fill="#2b5df2"/>
<path d="m200 3-198.5 1.6875v200.41l388.03 543.22c95.367-29.34 170.48-105.1 199.25-201.03l-388.78-544.28z" fill="#fff" fill-rule="evenodd" stroke="#000" stroke-width="3"/>
</g>
<g transform="matrix(1.0456 0 0 1.0456 -23.455 -24.294)" fill="#2b5df2" fill-rule="evenodd" stroke="#000">
<path transform="matrix(1.9155 -1.3273 1.3273 1.9155 -1821.6 763.26)" d="m885.68 296.01-31.633-3.9984-11.879 29.589-12.354-29.394-31.564 4.5071 19.279-25.396-19.685-25.082 31.633 3.9984 11.879-29.589 12.354 29.394 31.564-4.5071-19.279 25.396 19.685 25.082z" stroke-width="1.2874"/>
<path transform="matrix(1.9259 -1.3121 1.3121 1.9259 -1681.9 953.83)" d="m885.68 296.01-31.633-3.9984-11.879 29.589-12.354-29.394-31.564 4.5071 19.279-25.396-19.685-25.082 31.633 3.9984 11.879-29.589 12.354 29.394 31.564-4.5071-19.279 25.396 19.685 25.082z" stroke-width="1.2874"/>
<path transform="matrix(1.9136 -1.33 1.33 1.9136 -1532 1178.4)" d="m885.68 296.01-31.633-3.9984-11.879 29.589-12.354-29.394-31.564 4.5071 19.279-25.396-19.685-25.082 31.633 3.9984 11.879-29.589 12.354 29.394 31.564-4.5071-19.279 25.396 19.685 25.082z" stroke-width="1.2874"/>
</g>
<g>
<path d="m1.5 1.5v458.87c0 166.31 134.31 301.13 300 301.13 165.69 0 300-134.82 300-301.13v-458.87h-600z" fill="url(#a)"/>
<path d="m1.5 1.5v458.87c0 166.31 134.31 301.13 300 301.13 165.69 0 300-134.82 300-301.13v-458.87h-600z" fill="none" stroke="#000" stroke-width="3"/>
</g>
</svg>
